X:110
T:Jesus Christ Who Came to Save
%%stretchlast false
M:4/4
L:1/4
K:Bb clef=C1
"^vi"[G,,D,B,G] "^vi¹"[B,,G,DG] "^iii"[D,A,DF] "^V/V¹"[=E,G,CG] | "^V"[F,CA] "^♭v°¹"[G,B,=EG] "^iii²"[A,DF] "^VII"[A,,A,_D=E]/ "^VII7"[A,,G,_D=E]/ | "^iii"[D,F,D] "^I"[B,,B,DF] "^ii¹"[E,G,CG] "^V7"[F,CEA] | "^vi"[G,B,DG] "^V/vi"[D,A,D_G] "^vi"[G,,B,DG] "^viiø7"[A,,G,Ec] | "^vi¹"[B,,G,DG]/ [B,,G,DA]/ "^vi"[G,DB] "^viiø7¹"[C,G,EA] "^viiø7²"[E,A,CG] | "^III"[D,_G,A,A] "^V/ii"[G,,F,=B,G] "^ii"[C,E,CG] "^V/V"[C,=E,CG] | "^V"[F,,F,CA] "^vi"[G,,B,DG] "^iii²"[A,,A,DF] "^VII"[A,,A,_D=E]/ "^VII7"[A,,G,_D=E]/ | "^iii"[D,F,D] "^I"[B,,F,DF] "^♭v°¹"[G,,=E,B,G] "^V"[F,,F,CA] | "^vi"[G,,B,DG] "^III"[D,A,D_G]/ "^III7"[D,A,C_G]/ "^VI"[G,,G,=B,G]2 |]
